icons/op-settings-24.svg

<svg width="24" height="24" viewBox="0 0 24 24" fill="none" xmlns="http://www.w3.org/2000/svg">
<path d="M19.1181 10.4252H16.8819C16.7559 10.0157 16.5669 9.6063 16.3465 9.22835L17.8268 7.74803C18.1732 7.40157 18.1732 6.83465 17.8268 6.48819L17.1969 5.85827C16.8504 5.51181 16.2835 5.51181 15.937 5.85827L14.4252 7.37008C14.0157 7.11811 13.5748 6.96063 13.1024 6.83465V4.88189C13.1024 4.37795 12.7244 4 12.2205 4H11.3386C10.8346 4 10.4567 4.37795 10.4567 4.88189V6.83465C9.92126 6.96063 9.44882 7.1811 9.00787 7.43307L7.74803 6.17323C7.40157 5.82677 6.83465 5.82677 6.48819 6.17323L5.85827 6.80315C5.51181 7.14961 5.51181 7.71654 5.85827 8.06299L7.14961 9.35433C6.86614 9.82677 6.67717 10.3307 6.55118 10.8976H4.88189C4.37795 10.8976 4 11.2756 4 11.7795V12.6614C4 13.1654 4.37795 13.5433 4.88189 13.5433H6.67717C6.83465 14.0787 7.08661 14.5827 7.40157 15.0236L6.17323 16.252C5.82677 16.5984 5.82677 17.1654 6.17323 17.5118L6.80315 18.1417C7.14961 18.4882 7.71654 18.4882 8.06299 18.1417L9.41732 16.7874C9.85827 17.0079 10.3622 17.1654 10.8976 17.2598V19.1181C10.8976 19.622 11.2756 20 11.7795 20H12.6614C13.1654 20 13.5433 19.622 13.5433 19.1181V17.0394C14.0157 16.8819 14.4252 16.6614 14.8031 16.378L16.252 17.8268C16.5984 18.1732 17.1654 18.1732 17.5118 17.8268L18.1417 17.1969C18.4882 16.8504 18.4882 16.2835 18.1417 15.937L16.5669 14.3622C16.7559 13.9843 16.9134 13.5433 17.0079 13.1024H19.1181C19.622 13.1024 20 12.7244 20 12.2205V11.3386C20 10.8346 19.622 10.4252 19.1181 10.4252ZM11.7795 14.2362C10.5512 14.2362 9.54331 13.2283 9.54331 12C9.54331 10.7717 10.5512 9.76378 11.7795 9.76378C13.0079 9.76378 14.0157 10.7717 14.0157 12C14.0157 13.2283 13.0079 14.2362 11.7795 14.2362Z" fill="black"/>
</svg>

<svg xmlns="http://www.w3.org/2000/svg" width="24" height="24" viewBox="0 0 24 24"><path d="M19.118 10.425h-2.236a5.788 5.788 0 0 0-.536-1.197l1.481-1.48a.894.894 0 0 0 0-1.26l-.63-.63a.894.894 0 0 0-1.26 0L14.425 7.37c-.409-.252-.85-.409-1.323-.535V4.882A.861.861 0 0 0 12.22 4h-.881a.861.861 0 0 0-.882.882v1.953c-.536.126-1.008.346-1.449.598l-1.26-1.26a.894.894 0 0 0-1.26 0l-.63.63a.894.894 0 0 0 0 1.26L7.15 9.354a5.076 5.076 0 0 0-.599 1.544H4.882A.861.861 0 0 0 4 11.78v.881c0 .504.378.882.882.882h1.795c.158.536.41 1.04.725 1.481l-1.229 1.228a.894.894 0 0 0 0 1.26l.63.63a.894.894 0 0 0 1.26 0l1.354-1.355c.441.221.945.378 1.481.473v1.858c0 .504.378.882.882.882h.881a.861.861 0 0 0 .882-.882v-2.079a4.362 4.362 0 0 0 1.26-.661l1.449 1.449a.894.894 0 0 0 1.26 0l.63-.63a.894.894 0 0 0 0-1.26l-1.575-1.575c.189-.378.346-.819.441-1.26h2.11A.861.861 0 0 0 20 12.22v-.881c0-.504-.378-.914-.882-.914Zm-7.338 3.811A2.245 2.245 0 0 1 9.543 12a2.245 2.245 0 0 1 2.237-2.236A2.245 2.245 0 0 1 14.016 12a2.245 2.245 0 0 1-2.236 2.236Z"/></svg>
